**kern	**kern	**dynam
*part1	*part1	*part1
*staff2	*staff1	*
*I"Piano	*	*
*clefF4	*clefG2	*
*k[f#c#]	*k[f#c#]	*
=1	=1	=1
*^	*^	*
*	*	*	*^	*
8.GnL	4BB	4b	4d	8.e#X/L	.
16F#Jk	.	.	.	16f#/Jk	.
4F#	[2BB	[2b	[2B	4f#/	>
4E	.	.	.	4en/	.
=	=	=	=	=	=
2D	2.BB_	2.b_	2d	2.B\_	]
4E	.	.	4e	.	.
=	=	=	=	=	=
4D	2.BB]	2.b]	4d	2.B\]	.
4C#	.	.	4c#	.	.
4r	.	.	4r	.	.
*v	*v	*	*	*	*
*	*v	*v	*v	*
=	=	=
2.r	2.B 2.b	.
=	=	=
2.r	2.r	.
=	=	=
2.r	4r	.
.	2d	pp
=	=	=
2.r	[2c#	.
.	8.c#L]	.
.	16BJk	.
=	=	=
2.r	2.B	.
==	==	==
*-	*-	*-
!!!system-decoration: {(s1,s2)}
